X: 1754
T: Sevdim Seni Ey İşvebâz
C: Tanburî Cemil Bey
O: Turkey
F: http://compmusic.upf.edu/node/140
N: nihavent--sarki--yuruksemai--sevdim_seni--tanburi_cemil_bey
N: makam= nihavent
N: form= sarki
N: usul= yuruksemai = 6/8
M: 6/8
L: 1/16
K: C _B _e  
Q: 1/4=174
%%MIDI tuningsystem comma53
B2BA Bcd2 dcdB  | A2AG ABc2 c=BcA  | \
w:  ARANAĞME  |   | 
G2G^F GAB2 A2G2  | 
w:   | 
ABAG ^FGA4z2  | c2c=B cde2 edec  | B2BA Bcd2 dcdB  | 
w:   |   |   | 
A2B2 c2d2 B2A2  | .G2.B2 .d2.G4z2  | \
w:   |   | 
B2BA Bcd2 dcdB  | 
w:  ARANAĞME  | 
A2AG ABc2 c=BcA  | G2G^F GAB2 A2G2  | \
w:   |   | 
ABAG ^FGA4z2  | 
w:   | 
c2c=B cde2 edec  | B2BA Bcd2 dcdB  | \
w:   |   | 
A2B2 c2d2 B2A2  | 
w:   | 
.G2.B2 .d2.G4z2  | d6c4B2  | d8-d2z2  | \
w:   |  Sev dim  se  |  ni   | 
d6c4B2  | d8-d2z2  | c4 B2A4G2  | 
w:  ey  iş ve  |  bâz    |  Çek *  tik le  | 
F6f6  | f6=e4f2  | _a2g2 f2e2 d2^c2  | d6c4B2  | \
w:  rim   |  tâ kat  gü  |  dâz    |  Bun ca  za  | 
d8-d2z2  | d6c4B2  | d8-d2z2  | 
w:  man   |  et tim  ni  |  yâz    | 
c4 B2A4G2  | F6f6  | f2e2 d2c2 B2A2  | .G2.B2 .d2.G4z2  | \
w:  Bil *  mem  ne  |  den   |  bu  *  *  ih *  ti  |  râz   SAZ  | 
B2BA Bcd2 dcdB  | 
w:  ARANAĞME  | 
A2AG ABc2 c=BcA  | G2G^F GAB2 A2G2  | \
w:   |   | 
ABAG ^FGA4z2  | 
w:   | 
c2c=B cde2 edec  | B2BA Bcd2 dcdB  | \
w:   |   | 
A2B2 c2d2 B2A2  | 
w:   | 
.G2.B2 .d2.G4z2  | B2BA Bcd2 dcdB  | \
w:   |  ARANAĞME  | 
A2AG ABc2 c=BcA  | 
w:   | 
G2G^F GAB2 A2G2  | ABAG ^FGA4z2  | c2c=B cde2 edec  | 
w:   |   |   | 
B2BA Bcd2 dcdB  | A2B2 c2d2 B2A2  | .G2.B2 .d2.G4z2  | 
w:   |   |   | 
g6^f4g2  | a8-a2z2  | f6=e4f2  | g8-g2z2  | \
w:  Ey  iş ve  |  bâz   |  ey  ser vi  |  nâz    | 
e2d2 c2d2 e2f2  | g2a2 f2e2 d2c2  | 
w:  Sen  *  *  de  *  be  |  ni   | 
a2g2 f2gf e2ed  | d8-d2z2  | g6^f4g2  | \
w:  sev *  *  sen  *  *  bi  |  raz    |  Ey  iş ve  | 
a8-a2z2  | f6=e4f2  | g8-g2z2  | 
w:  bâz   |  ey  ser vi  |  nâz    | 
e2d2 c2d2 e2f2  | g2a2 f2e2 d2c2  | a2g2 f2gf e2ed  | \
w:  Sen  *  *  de  *  be  |  ni   |  sev *  *  sen  *  *  bi  | 
d8-d2z2  | 
w:  raz    | 
d6c4B2  | d8-d2z2  | d6c4B2  | d8-d2z2  | c4 B2A4G2  | \
w:  Ey  rûh nü  |  vâz   |  ey  dil nü  |  vâz    |  Hic *  râ ne   | 
F6f6  | f6=e4f2  | 
w:  ol   |  sen  çâ re  | 
_a2g2 f2e2 d2^c2  | d6c4B2  | d8-d2z2  | \
w:  sâz    |  Ey  rûh nü  |  vâz   | 
d6c4B2  | d8-d2z2  | c4 B2A4G2  | 
w:  ey  dil nü  |  vâz    |  Hic *  râ ne   | 
F6f6  | f2e2 d2c2 B2A2  | .G2.B2 .d2.G4z2  | |


